assets/ai/ai-sci-hub-square.svg

<svg xmlns="http://www.w3.org/2000/svg" width="100%" height="100%" viewBox="-75.52 -43.52 599.04 599.04"><path d="M 48 32 C 21.5 32 0 53.5 0 80 L 0 432 C 0 458.5 21.5 480 48 480 L 102.73047 480 L 102.73047 417.26953 C 106.46546 424.56509 110.59961 432.33587 115.15625 440.55273 L 115.15625 480 L 118.44336 480 L 118.44336 446.45312 C 122.30282 453.32542 126.43698 460.49683 130.86914 467.9668 L 130.86914 480 L 134.15234 480 L 134.15234 473.46875 C 135.4563 475.63919 136.79686 477.81966 138.13086 480 L 141.01953 480 C 139.07222 476.81466 137.15763 473.64699 135.2793 470.50781 C 134.90618 469.88541 134.52959 469.23817 134.15625 468.61523 C 133.88212 468.16743 133.61094 467.71644 133.36133 467.29297 C 133.212 467.04336 133.0595 466.77198 132.91016 466.52344 C 132.63602 466.07533 132.36768 465.62573 132.11914 465.17773 L 131.66602 464.43359 C 131.39188 463.98516 131.12159 463.5105 130.87305 463.0625 C 126.41593 455.51787 122.30673 448.29906 118.44727 441.37695 C 118.17313 440.87881 117.92453 440.40613 117.65039 439.93359 L 117.20312 439.11133 C 116.929 438.63762 116.65479 438.13962 116.40625 437.66602 C 116.25691 437.39188 116.10637 437.11874 115.95703 436.86914 C 115.6829 436.37175 115.43429 435.87399 115.16016 435.40039 C 110.60362 427.08391 106.46925 419.21507 102.73438 411.79492 C 102.46023 411.27214 102.21164 410.74533 101.9375 410.22266 L 101.49023 409.32812 C 101.21609 408.7803 100.93995 408.25815 100.69141 407.71094 L 100.24609 406.81445 L 99.947266 406.21484 L 100.24609 406.51758 C 100.39436 406.66692 100.54207 406.79207 100.69141 406.94141 C 100.94101 407.18994 101.21609 407.40945 101.49023 407.68359 C 101.63956 407.80839 101.78817 407.93464 101.9375 408.08398 C 102.1871 408.30798 102.46023 408.55334 102.73438 408.77734 C 105.9215 411.54121 110.00596 414.55888 115.16016 417.54688 C 115.43429 417.72179 115.6829 417.8702 115.95703 418.01953 C 116.10637 418.0942 116.25691 418.19288 116.40625 418.26758 C 116.68039 418.41691 116.929 418.56551 117.20312 418.71484 C 117.35246 418.78951 117.50105 418.8708 117.65039 418.9668 C 117.92453 419.0916 118.17313 419.24129 118.44727 419.39062 C 119.36856 419.8891 120.33966 420.36124 121.33594 420.85938 C 123.30301 421.83047 125.36798 422.8238 127.48438 423.86914 C 128.03222 424.14328 128.60297 424.41728 129.17578 424.69141 C 129.69877 424.93995 130.22342 425.19071 130.74609 425.46484 C 131.04476 425.61418 131.34281 425.76083 131.66602 425.91016 C 132.0897 426.10963 132.48669 426.3103 132.91016 426.50977 C 133.33374 426.70924 133.73278 426.90881 134.15625 427.13281 C 136.27276 428.15373 138.4642 429.22234 140.70508 430.29297 C 141.25293 430.5671 141.80024 430.8422 142.37305 431.0918 L 142.39453 431.11328 C 142.91752 431.36181 143.44302 431.61258 143.99023 431.88672 C 145.11077 432.4096 146.2296 432.95758 147.375 433.50586 C 147.77298 433.70533 148.19762 433.89819 148.62109 434.09766 C 149.01917 434.29713 149.44176 434.4978 149.86523 434.69727 C 153.89899 436.63937 158.03119 438.63492 162.28906 440.62695 C 162.56319 440.77628 162.81376 440.90059 163.08789 441.02539 C 163.23723 441.10006 163.38582 441.16936 163.53516 441.22266 C 163.8093 441.37306 164.05984 441.50361 164.33398 441.59961 L 164.7793 441.82227 C 165.0289 441.94707 165.30204 442.06856 165.57617 442.19336 C 169.63489 444.13546 173.79586 446.07981 178.00391 448.04688 C 178.42749 448.24635 178.85018 448.44701 179.24805 448.64648 C 179.67163 448.84594 180.09627 449.01537 180.49414 449.21484 C 203.08472 459.74704 227.20518 470.63434 249.56055 480 L 256.05469 480 C 231.87933 470.01568 205.22882 458.00883 180.48828 446.44922 C 180.06459 446.27428 179.64396 446.07252 179.24609 445.87305 C 178.82251 445.67358 178.39787 445.4768 178 445.27734 C 173.79194 443.33523 169.63283 441.36648 165.57422 439.44922 C 165.17582 439.24997 163.08398 438.25977 163.08398 438.25977 C 163.00931 438.23417 161.74078 437.60595 161.16797 437.35742 L 161.13672 437.33594 C 157.27726 435.51821 153.5197 433.70193 149.85938 431.95898 C 149.4358 431.75951 149.03676 431.55885 148.61328 431.35938 C 148.18971 431.15992 147.76701 430.9358 147.36914 430.73633 C 145.7257 429.96437 144.15807 429.19199 142.56445 428.44531 L 142.54297 428.42383 C 142.02008 428.17529 141.46994 427.89698 140.94727 427.64844 C 140.37457 427.3743 139.80413 427.10226 139.25586 426.82812 C 137.5129 425.98162 135.81868 425.16119 134.15039 424.33984 C 133.72681 424.14037 133.32778 423.94556 132.9043 423.74609 C 132.48073 423.54662 132.08363 423.34595 131.66016 423.14648 C 130.8882 422.7485 130.09259 422.37334 129.32031 422 C 128.79743 421.72587 128.24924 421.47421 127.72656 421.22461 C 127.15386 420.92594 126.58147 420.65304 126.0332 420.37891 C 124.81302 419.78135 123.59408 419.18804 122.42383 418.61523 C 121.02947 417.9429 119.71129 417.24448 118.44141 416.54688 C 118.16727 416.39861 117.89307 416.24894 117.64453 416.09961 C 117.4952 416.02494 117.34464 415.94952 117.19531 415.85352 C 116.92117 415.70418 116.64698 415.54973 116.39844 415.40039 C 116.25017 415.30013 116.1005 415.22295 115.95117 415.12695 C 115.67703 414.97762 115.40284 414.83098 115.1543 414.68164 C 109.8257 411.46965 105.76622 408.25598 102.72852 405.39258 C 102.45439 405.14298 102.18017 404.89327 101.93164 404.61914 C 101.7823 404.49433 101.63176 404.34465 101.48242 404.19531 C 101.20829 403.92118 100.93515 403.64913 100.68555 403.375 L 100.24023 402.92578 C 99.966101 402.62711 99.689936 402.32992 99.441406 402.03125 C 97.125746 399.44167 95.778329 397.37489 95.130859 396.2793 C 95.057259 396.1801 95.014237 396.07647 94.960938 395.98047 C 92.022757 389.75554 89.379142 383.92759 87.013672 378.47461 C 86.739532 377.8521 86.465337 377.23406 86.216797 376.63672 L 85.769531 375.58594 C 85.495401 374.96343 85.221186 374.3417 84.972656 373.71875 C 84.823316 373.34499 84.672777 372.99724 84.523438 372.64844 C 84.249307 372.00096 83.975093 371.3788 83.726562 370.75586 C 77.825363 356.56315 73.894158 345.23645 71.304688 336.62109 C 70.856468 335.10224 70.433887 333.65715 70.060547 332.3125 C 69.587897 330.61935 69.163253 329.07309 68.814453 327.62891 C 66.773043 319.66102 66.375 315.75286 66.375 315.60352 L 66.353516 315.50781 C 60.427366 279.07961 65.702929 253.25724 82.037109 238.76562 C 86.195349 235.08047 90.957108 232.19313 96.210938 230.00195 L 121.33008 249.27148 L 201.20898 279.20117 L 273.07031 256.64062 L 273.08984 256.64062 C 312.20714 274.99169 323.26395 309.80343 330.9082 333.90625 C 331.8792 336.94404 332.77476 339.80755 333.69531 342.42188 C 335.53778 347.80019 339.19614 361.74218 343.85156 381.03906 C 343.85156 381.06036 343.87305 381.08342 343.87305 381.13672 C 344.02347 382.58089 343.90214 384.34884 343.77734 386.0918 L 343.70312 387.11328 C 341.93182 413.84835 321.08096 456.38272 308.43359 480 L 311.31055 480 C 323.71332 456.81098 343.14792 416.9233 345.97461 389.85547 L 345.97852 389.85742 C 351.8787 414.75076 359.06046 446.71746 366.06836 480 L 400 480 C 426.5 480 448 458.5 448 432 L 448 80 C 448 53.5 426.5 32 400 32 L 48 32 z M 351.83398 96.005859 L 351.83789 96.005859 L 351.83984 96.005859 C 355.24821 95.942644 358.85335 96.391766 362.48047 97.412109 C 376.97206 101.47077 386.3838 113.17447 383.4707 123.50781 C 380.73168 133.29336 367.9834 138.37076 354.36328 135.48242 L 348.28516 155.80078 L 347.91406 157.04297 L 347.56641 158.24023 C 355.95756 163.34462 362.10826 169.19654 363.90039 175.79492 L 342.11328 176.44141 L 341.73828 177.71289 L 341.36328 178.95703 L 329.26367 219.4668 L 346.11914 224.52148 L 344.875 228.70898 L 328.01953 223.65039 L 327.3418 225.91602 L 344.20312 230.97461 L 342.95898 235.1582 L 326.07422 230.09961 L 325.40234 232.36523 L 342.2832 237.39258 L 341.01367 241.60352 L 324.1582 236.54883 L 315.51562 233.96094 L 316.75977 229.7793 L 317.43555 227.51172 L 318.68164 223.33008 L 319.35352 221.08789 L 320.59766 216.88086 L 331.85156 179.23047 L 332.22461 177.98438 L 332.625 176.71484 L 283.89648 178.13477 L 283.875 178.13477 L 257.62695 159.23828 L 268.21094 132.69336 C 274.85913 133.86367 313.23349 141.01067 339.45312 153.83398 L 339.82617 152.66211 L 340.19727 151.41602 L 345.82812 132.56836 C 334.92207 127.31456 328.49595 117.58206 330.96094 108.76758 C 333.12684 101.00041 341.60631 96.19896 351.83398 96.005859 z M 215.69727 96.671875 C 219.97999 98.738546 230.93669 104.24124 236.83789 109.04688 L 238.85742 110.69141 L 238.85742 101.95312 C 244.68395 105.88727 261.91201 118.36096 265.92188 130.5625 L 265.92188 130.58594 C 265.99655 130.80994 266.06584 131.00831 266.11914 131.23242 L 265.82422 131.95312 L 265.20117 133.54883 L 254.61914 160.11523 L 279.99219 178.43945 L 281.48242 179.50977 L 281.4082 179.58594 C 281.03465 179.93495 280.55979 180.4031 280.03711 180.92578 C 271.94474 189.11777 249.2356 216.8062 270.00195 252.53711 C 270.35043 253.15962 270.72432 253.75792 271.09766 254.38086 L 271.12891 254.38086 C 271.15455 254.45553 271.19865 254.53077 271.25195 254.60547 L 269.68555 255.10547 L 201.25977 276.56641 L 122.69922 247.1875 L 98.894531 228.9375 L 97.701172 228.01172 L 97.626953 227.95898 C 97.626953 227.66063 97.627138 227.25986 97.648438 226.76172 C 97.972167 217.42432 102.48306 172.08358 158.08398 120.06836 L 159.20312 119.02344 L 149.31445 112.17578 C 155.36509 110.33321 171.65367 105.87663 184.00391 107.64453 L 186.66406 108.01758 L 180.31836 97.986328 C 184.97452 97.587934 197.72096 97.385964 213.98047 103.88477 L 215.69727 104.55469 L 215.69727 96.671875 z M 353.81836 103.41211 C 347.35343 103.52999 341.98236 106.56903 340.61914 111.48047 C 338.77645 118.02909 344.70267 125.39676 353.89062 127.98633 C 363.05362 130.55099 371.96797 127.34156 373.81055 120.79297 C 375.65303 114.26926 369.70206 106.87132 360.53906 104.30664 C 358.24826 103.65938 355.97327 103.37261 353.81836 103.41211 z M 243.0625 129.95508 L 243.0625 129.95703 C 236.5886 129.95703 231.33789 135.20773 231.33789 141.68164 C 231.33789 148.15553 236.5886 153.41211 243.0625 153.41211 C 244.10827 153.41211 245.13393 153.26026 246.08008 153.01172 C 246.50312 152.91252 246.90205 152.78715 247.27539 152.61328 C 247.67347 152.46395 248.04464 152.31275 248.41797 152.11328 C 252.20277 150.17118 254.79297 146.23633 254.79297 141.67969 C 254.79297 140.4098 254.59425 139.16891 254.19531 138.02344 C 254.07157 137.62507 253.92192 137.22501 253.74805 136.85156 C 253.57312 136.47806 253.39783 136.1064 253.17383 135.75781 C 251.15706 132.29678 247.37008 129.95508 243.0625 129.95508 z M 243.0625 132.44531 L 243.0625 132.44922 C 246.3243 132.44922 249.19055 134.13843 250.83398 136.70312 C 251.08359 137.05172 251.28425 137.42528 251.43359 137.79883 C 251.63199 138.17229 251.78291 138.54691 251.87891 138.94531 L 251.87891 138.9668 C 252.15305 139.81343 252.30273 140.73354 252.30273 141.67969 C 252.30273 145.11589 250.40939 148.13109 247.5957 149.72461 C 247.22215 149.92301 246.851 150.1241 246.45312 150.27344 C 246.07914 150.42277 245.65569 150.54853 245.25781 150.64453 C 244.56052 150.8152 243.80918 150.92188 243.0625 150.92188 C 237.98297 150.92187 233.82812 146.75922 233.82812 141.67969 C 233.82813 136.57527 237.98297 132.44531 243.0625 132.44531 z M 71.308594 344.96289 C 72.155224 347.50277 73.101144 350.24066 74.146484 353.12891 C 76.561774 359.80206 79.694866 367.81787 83.728516 377.20508 L 83.728516 441.52344 L 71.308594 453.94727 L 71.308594 344.96289 z M 87.017578 384.67578 L 87.021484 384.67969 C 88.689774 388.38971 90.483361 392.30088 92.425781 396.38477 L 92.373047 396.40625 C 92.423177 396.4806 92.596513 396.87901 92.945312 397.50195 C 94.962193 401.73486 97.127699 406.18889 99.443359 410.82031 L 99.443359 461.44141 L 87.017578 473.86719 L 87.017578 384.67578 z"/></svg>

<svg xmlns="http://www.w3.org/2000/svg" width="100%" height="100%" viewBox="-75.52 -43.52 599.04 599.04"><path d="M48 32C21.5 32 0 53.5 0 80v352c0 26.5 21.5 48 48 48h54.73v-62.73a796.662 796.662 0 0012.426 23.283V480h3.287v-33.547c3.86 6.872 7.994 14.044 12.426 21.514V480h3.283v-6.531c1.304 2.17 2.645 4.35 3.979 6.531h2.889a1167.235 1167.235 0 01-5.74-9.492c-.374-.623-.75-1.27-1.124-1.893a93.553 93.553 0 01-.795-1.322c-.149-.25-.301-.521-.45-.77a36.898 36.898 0 01-.792-1.345l-.453-.744a38.108 38.108 0 01-.793-1.372 995.36 995.36 0 01-12.426-21.685c-.274-.498-.522-.97-.797-1.443l-.447-.823a40.632 40.632 0 01-.797-1.445c-.15-.274-.3-.547-.449-.797-.274-.497-.523-.995-.797-1.469a765.45 765.45 0 01-12.426-23.605c-.274-.523-.522-1.05-.796-1.572l-.448-.895c-.274-.548-.55-1.07-.799-1.617l-.445-.897-.299-.6.3.304c.147.149.295.274.444.423.25.249.525.468.8.743.149.124.297.25.447.4.25.224.522.47.796.693 3.188 2.764 7.272 5.782 12.426 8.77.274.175.523.323.797.473.15.074.3.173.45.248.273.149.522.298.796.447.15.075.298.156.447.252.275.125.523.274.797.424.922.498 1.893.97 2.889 1.468 1.967.971 4.032 1.965 6.148 3.01.548.274 1.119.548 1.692.822.523.249 1.047.5 1.57.774.299.15.597.296.92.445.424.2.82.4 1.244.6.424.2.823.399 1.246.623 2.117 1.02 4.308 2.09 6.55 3.16.547.274 1.094.55 1.667.799l.022.021c.523.249 1.048.5 1.595.774 1.12.523 2.24 1.07 3.385 1.619.398.2.823.392 1.246.592.398.2.82.4 1.244.6 4.034 1.941 8.166 3.937 12.424 5.929.274.15.525.274.799.398.15.075.298.144.447.198.274.15.525.28.799.377l.445.222c.25.125.523.247.797.371 4.059 1.942 8.22 3.887 12.428 5.854.423.2.846.4 1.244.6.424.199.848.368 1.246.568 22.59 10.532 46.711 21.42 69.067 30.785h6.494c-24.176-9.984-50.826-21.991-75.567-33.55a18.878 18.878 0 01-1.242-.577c-.423-.2-.848-.396-1.246-.596-4.208-1.942-8.367-3.91-12.426-5.828-.398-.199-2.49-1.19-2.49-1.19-.075-.025-1.343-.653-1.916-.902l-.031-.021c-3.86-1.818-7.617-3.634-11.278-5.377-.423-.2-.822-.4-1.246-.6-.423-.2-.846-.423-1.244-.623-1.643-.772-3.21-1.544-4.805-2.29l-.021-.022c-.523-.249-1.073-.527-1.596-.776-.572-.274-1.143-.546-1.691-.82-1.743-.846-3.437-1.667-5.106-2.488-.423-.2-.822-.394-1.246-.594-.423-.2-.82-.4-1.244-.6-.772-.398-1.567-.773-2.34-1.146-.523-.274-1.07-.526-1.593-.775-.573-.3-1.146-.572-1.694-.846-1.22-.598-2.439-1.191-3.61-1.764a84.11 84.11 0 01-3.982-2.068 20.685 20.685 0 01-.796-.447c-.15-.075-.3-.15-.45-.246a22.13 22.13 0 01-.797-.454c-.148-.1-.297-.177-.447-.273-.274-.15-.548-.296-.797-.445-5.328-3.212-9.388-6.426-12.425-9.29-.275-.249-.549-.499-.797-.773-.15-.125-.3-.274-.45-.424-.274-.274-.547-.546-.796-.82l-.446-.45c-.274-.298-.55-.595-.799-.894-2.315-2.59-3.663-4.656-4.31-5.752-.074-.099-.117-.203-.17-.299a607.987 607.987 0 01-7.947-17.505c-.274-.623-.549-1.24-.797-1.838l-.447-1.051c-.275-.623-.549-1.244-.797-1.867-.15-.374-.3-.722-.45-1.07-.274-.648-.548-1.27-.796-1.893-5.902-14.193-9.833-25.52-12.422-34.135-.449-1.519-.871-2.964-1.244-4.308-.473-1.694-.898-3.24-1.247-4.684-2.041-7.968-2.439-11.876-2.439-12.025l-.021-.096c-5.927-36.428-.651-62.25 15.683-76.742 4.158-3.686 8.92-6.573 14.174-8.764l25.12 19.27 79.878 29.93 71.861-22.561h.02c39.117 18.35 50.174 53.162 57.818 77.265.971 3.038 1.867 5.902 2.787 8.516 1.843 5.378 5.501 19.32 10.157 38.617 0 .021.021.044.021.098.15 1.444.03 3.212-.096 4.955l-.074 1.021c-1.771 26.735-22.622 69.27-35.27 92.887h2.878c12.402-23.189 31.837-63.077 34.664-90.145l.004.002c5.9 24.894 13.081 56.86 20.09 90.143H400c26.5 0 48-21.5 48-48V80c0-26.5-21.5-48-48-48H48zm303.834 64.006h.006c3.408-.063 7.013.386 10.64 1.406 14.492 4.059 23.904 15.762 20.99 26.096-2.738 9.785-15.487 14.863-29.107 11.974l-6.078 20.319-.37 1.242-.349 1.197c8.392 5.105 14.542 10.957 16.334 17.555l-21.787.646-.375 1.272-.375 1.244-12.1 40.51 16.856 5.054-1.244 4.188-16.855-5.059-.678 2.266 16.861 5.059-1.244 4.183-16.885-5.058-.672 2.265 16.881 5.028-1.27 4.21-16.855-5.054-8.642-2.588 1.244-4.182.676-2.267 1.246-4.182.672-2.242 1.244-4.207 11.254-37.65.373-1.247.4-1.27-48.729 1.42h-.021l-26.248-18.896 10.584-26.545c6.648 1.17 45.022 8.318 71.242 21.141l.373-1.172.371-1.246 5.631-18.848c-10.906-5.253-17.332-14.986-14.867-23.8 2.166-7.768 10.645-12.569 20.873-12.762zm-136.137.666c4.283 2.067 15.24 7.57 21.14 12.375l2.02 1.644v-8.738c5.827 3.934 23.055 16.408 27.065 28.61v.023c.075.224.144.422.197.646l-.295.721-.623 1.596-10.582 26.566 25.373 18.324 1.49 1.07-.074.077c-.373.349-.848.817-1.37 1.34-8.093 8.192-30.802 35.88-10.036 71.611.348.623.722 1.22 1.096 1.844h.03c.027.075.07.15.124.224l-1.566.5-68.426 21.461-78.56-29.378-23.805-18.25-1.194-.926-.074-.053c0-.298 0-.7.021-1.197.324-9.338 4.835-54.678 60.436-106.694l1.12-1.045-9.89-6.847c6.051-1.843 22.34-6.3 34.69-4.531l2.66.373-6.346-10.032c4.657-.398 17.403-.6 33.662 5.899l1.717.67v-7.883zm138.121 6.74c-6.465.118-11.836 3.157-13.199 8.068-1.843 6.55 4.084 13.917 13.272 16.506 9.163 2.565 18.077-.644 19.92-7.193 1.842-6.524-4.109-13.922-13.272-16.486a23.227 23.227 0 00-6.72-.895zm-110.755 26.543v.002c-6.474 0-11.725 5.25-11.725 11.725 0 6.474 5.25 11.73 11.725 11.73 1.045 0 2.07-.152 3.017-.4.423-.1.822-.225 1.195-.399.398-.149.77-.3 1.143-.5a11.71 11.71 0 006.375-10.433c0-1.27-.199-2.511-.598-3.657a9.422 9.422 0 00-.447-1.171 9.255 9.255 0 00-.574-1.094 11.711 11.711 0 00-10.112-5.803zm0 2.49v.004a9.21 9.21 0 017.771 4.254c.25.349.45.722.6 1.096.198.373.349.748.445 1.146v.022c.274.846.424 1.767.424 2.713 0 3.436-1.894 6.451-4.707 8.045-.374.198-.745.4-1.143.548a9.01 9.01 0 01-1.195.372 9.331 9.331 0 01-2.196.277c-5.079 0-9.234-4.163-9.234-9.242 0-5.105 4.155-9.235 9.234-9.235zM71.309 344.963a339.3 339.3 0 002.837 8.166c2.416 6.673 5.549 14.689 9.583 24.076v64.318l-12.42 12.424V344.963zm15.709 39.713l.003.004a600.76 600.76 0 005.405 11.705l-.053.021c.05.075.224.473.572 1.096a780.111 780.111 0 006.498 13.318v50.621l-12.425 12.426v-89.191z"/></svg>
